icon-svg/desk-stand.svg

<svg xmlns="http://www.w3.org/2000/svg" fill="#44739e" viewBox="0 0 24 24"><path d="m10.927 9.588-.458.023-.003-.062-.162.008.003.062-.079.004-.003-.063-.162.008.003.063-.086.005-.003-.064-.162.008.003.064-.084.004-.003-.06-.162.007.003.061-.078.004-.003-.061-.161.008.002.061-.078.004-.002-.062-.162.008.003.062-.083.004-.003-.062-.162.007.003.063-.174.009v.149h2.253zm5.884.094V9.45a.323.323 0 0 0-.1-.589l-.34-.912-.009-.019a.323.323 0 0 0-.266-.508.37.37 0 0 0-.067.007l-1.658-1.224a.12.12 0 0 0-.042-.02l.162-.654-.176-.165.294-1.3a.151.151 0 0 0-.114-.182l-.025-.005a.152.152 0 0 0-.182.114l-1.15 5.09a.152.152 0 0 0 .115.181l.025.006a.151.151 0 0 0 .181-.115l.392-1.731h.171l.2-.789 1.562 1.15a.322.322 0 0 0 .255.28v.012l.34.912a.322.322 0 0 0 .093.463v.232a.132.132 0 0 0 .05.1h-.242v.093h.51v.49h-.51v.082h.664v-.664h-.184a.13.13 0 0 0 .051-.103m-9.54.949h.169a.324.324 0 0 0 .281-.161l.076-.13h-.352Zm8.455 9.528h-1.283v-4.93h-1.338v4.93h-3.4a.413.413 0 0 0-.413.413h6.847a.413.413 0 0 0-.413-.413m-2.552-9.45h1.2v4.409h-1.2zm2.5-.318a.023.023 0 0 0-.024-.023H8.944a.023.023 0 0 0-.023.023.183.183 0 0 0 .182.183h6.388a.183.183 0 0 0 .183-.183m-8.289-.426h9.34v.318h-9.34Z"/></svg>

<?xml version="1.0" encoding="UTF-8"?>
<svg width="24px" fill="#44739e" height="24px" viewBox="0 0 24 24" version="1.1" xmlns="http://www.w3.org/2000/svg" xmlns:xlink="http://www.w3.org/1999/xlink">
            <path d="M 10.927,9.588 10.469,9.611 10.466,9.549 10.304,9.557 10.307,9.619 10.228,9.623 10.225,9.56 10.063,9.568 10.066,9.631 9.98,9.636 9.977,9.572 9.815,9.58 9.818,9.644 9.734,9.648 9.731,9.588 9.569,9.595 9.572,9.656 9.494,9.66 9.491,9.599 9.33,9.607 9.332,9.668 9.254,9.672 9.252,9.61 9.09,9.618 9.093,9.68 9.01,9.684 9.007,9.622 8.845,9.629 8.848,9.692 8.674,9.701 V 9.85 h 2.253 z m 5.884,0.094 V 9.45 a 0.323,0.323 0 0 0 -0.1,-0.589 L 16.371,7.949 16.362,7.93 A 0.323,0.323 0 0 0 16.096,7.422 0.371,0.371 0 0 0 16.029,7.429 L 14.371,6.205 a 0.116,0.116 0 0 0 -0.042,-0.02 l 0.162,-0.654 -0.176,-0.165 0.294,-1.3 A 0.151,0.151 0 0 0 14.495,3.884 L 14.47,3.879 a 0.152,0.152 0 0 0 -0.182,0.114 l -1.15,5.09 a 0.152,0.152 0 0 0 0.115,0.181 l 0.025,0.006 a 0.151,0.151 0 0 0 0.181,-0.115 l 0.392,-1.731 h 0.171 l 0.2,-0.789 1.562,1.15 a 0.322,0.322 0 0 0 0.255,0.28 v 0.012 l 0.34,0.912 a 0.322,0.322 0 0 0 0.093,0.463 v 0.232 a 0.132,0.132 0 0 0 0.05,0.1 H 16.28 v 0.093 h 0.51 v 0.49 h -0.51 v 0.082 h 0.664 V 9.785 H 16.76 a 0.13,0.13 0 0 0 0.051,-0.103 z m -9.54,0.949 H 7.44 A 0.324,0.324 0 0 0 7.721,10.47 L 7.797,10.34 H 7.445 Z m 8.455,9.528 h -1.283 v -4.93 h -1.338 v 4.93 h -3.4 a 0.413,0.413 0 0 0 -0.413,0.413 h 6.847 a 0.413,0.413 0 0 0 -0.413,-0.413 z m -2.552,-9.45 h 1.2 v 4.409 h -1.2 z m 2.5,-0.318 A 0.023,0.023 0 0 0 15.65,10.368 H 8.944 a 0.023,0.023 0 0 0 -0.023,0.023 0.183,0.183 0 0 0 0.182,0.183 h 6.388 a 0.183,0.183 0 0 0 0.183,-0.183 z M 7.3850002,9.9650002 H 16.725 V 10.283 H 7.3850002 Z"/>

</svg>
